img/c7.svg

<svg width="120" height="120" viewBox="0 0 120 120" fill="none" xmlns="http://www.w3.org/2000/svg">
<g clip-path="url(#clip0)">
<path d="M100.386 10.0107H19.6136C12.4866 10.0107 6.70877 15.7886 6.70877 22.9156V98.095C6.70877 105.222 12.4866 111 19.6136 111H100.386C107.513 111 113.291 105.222 113.291 98.095V22.9156C113.291 15.7882 107.513 10.0107 100.386 10.0107Z" fill="#FEFABF"/>
<path d="M113.291 34.2576V18.6214C113.291 11.4944 107.513 5.71655 100.386 5.71655H19.6136C12.4866 5.71655 6.70877 11.4944 6.70877 18.6214V34.2576H113.291Z" fill="#FF6C4D"/>
<path d="M113.291 37.1748V22.9156C113.291 15.7886 107.513 10.0107 100.386 10.0107H19.6136C12.4866 10.0107 6.70877 15.7886 6.70877 22.9156V37.1748H113.291Z" fill="#FFC644"/>
<path d="M27.8467 16.9417C25.3592 16.9417 23.3427 18.9582 23.3427 21.4457C23.3427 23.9332 25.3592 25.9493 27.8467 25.9493C30.3342 25.9493 32.3503 23.9328 32.3503 21.4457C32.3507 18.9582 30.3342 16.9417 27.8467 16.9417Z" fill="#FFB23E"/>
<path d="M27.8466 0C26.516 0 25.4371 1.07896 25.4371 2.40957V21.1832C25.4371 22.5142 26.516 23.5927 27.8466 23.5927C29.1772 23.5927 30.2562 22.5142 30.2562 21.1832V2.40957C30.2562 1.07896 29.1776 0 27.8466 0V0Z" fill="#FFF4BD"/>
<path d="M49.2822 16.9417C46.7947 16.9417 44.7782 18.9582 44.7782 21.4457C44.7782 23.9332 46.7947 25.9493 49.2822 25.9493C51.7698 25.9493 53.7859 23.9328 53.7859 21.4457C53.7863 18.9582 51.7698 16.9417 49.2822 16.9417Z" fill="#FFB23E"/>
<path d="M49.2822 0C47.9516 0 46.8727 1.07896 46.8727 2.40957V21.1832C46.8727 22.5142 47.9516 23.5927 49.2822 23.5927C50.6128 23.5927 51.6918 22.5142 51.6918 21.1832V2.40957C51.6918 1.07896 50.6128 0 49.2822 0V0Z" fill="#FFF4BD"/>
<path d="M70.7178 16.9417C68.2303 16.9417 66.2137 18.9582 66.2137 21.4457C66.2137 23.9332 68.2303 25.9493 70.7178 25.9493C73.2053 25.9493 75.2214 23.9328 75.2214 21.4457C75.2214 18.9582 73.2053 16.9417 70.7178 16.9417Z" fill="#FFB23E"/>
<path d="M70.7178 0C69.3872 0 68.3082 1.07896 68.3082 2.40957V21.1832C68.3082 22.5142 69.3872 23.5927 70.7178 23.5927C72.0484 23.5927 73.1274 22.5142 73.1274 21.1832V2.40957C73.1274 1.07896 72.0484 0 70.7178 0V0Z" fill="#FFF4BD"/>
<path d="M92.1533 16.9417C89.6658 16.9417 87.6493 18.9582 87.6493 21.4457C87.6493 23.9332 89.6658 25.9493 92.1533 25.9493C94.6408 25.9493 96.657 23.9328 96.657 21.4457C96.657 18.9582 94.6404 16.9417 92.1533 16.9417Z" fill="#FFB23E"/>
<path d="M92.1529 0C90.8223 0 89.7434 1.07896 89.7434 2.40957V21.1832C89.7434 22.5142 90.8223 23.5927 92.1529 23.5927C93.4835 23.5927 94.5625 22.5142 94.5625 21.1832V2.40957C94.5625 1.07896 93.4839 0 92.1529 0V0Z" fill="#FFF4BD"/>
<path d="M46.0353 55.0049H55.7764V64.746H46.0353V55.0049Z" fill="#FF6C4D"/>
<path d="M64.2236 55.0049H73.9647V64.746H64.2236V55.0049Z" fill="#FF6C4D"/>
<path d="M82.4123 55.0049H92.1534V64.746H82.4123V55.0049Z" fill="#FF6C4D"/>
<path d="M27.8467 70.2754H37.5878V80.0165H27.8467V70.2754Z" fill="#FF6C4D"/>
<path d="M46.0353 70.2754H55.7764V80.0165H46.0353V70.2754Z" fill="#FF6C4D"/>
<path d="M64.2236 70.2754H73.9647V80.0165H64.2236V70.2754Z" fill="#FF6C4D"/>
<path d="M82.4123 70.2754H92.1534V80.0165H82.4123V70.2754Z" fill="#FF6C4D"/>
<path d="M27.8467 85.5461H37.5878V95.2872H27.8467V85.5461Z" fill="#FF6C4D"/>
<path d="M46.0353 85.5461H55.7764V95.2872H46.0353V85.5461Z" fill="#FF6C4D"/>
<path d="M64.2236 85.5461H73.9647V95.2872H64.2236V85.5461Z" fill="#FF6C4D"/>
</g>
<defs>
<clipPath id="clip0">
<rect width="120" height="120" fill="white"/>
</clipPath>
</defs>
</svg>

<svg width="120" height="120" viewBox="0 0 120 120" fill="none" xmlns="http://www.w3.org/2000/svg"><g clip-path="url(#a)"><path d="M100.386 10.01H19.614c-7.127 0-12.905 5.779-12.905 12.906v75.179c0 7.127 5.778 12.905 12.905 12.905h80.772c7.127 0 12.905-5.778 12.905-12.905v-75.18c0-7.127-5.778-12.904-12.905-12.904z" fill="#FEFABF"/><path d="M113.291 34.258V18.62c0-7.127-5.778-12.904-12.905-12.904H19.614c-7.127 0-12.905 5.777-12.905 12.904v15.637H113.29z" fill="#FF6C4D"/><path d="M113.291 37.175v-14.26c0-7.126-5.778-12.904-12.905-12.904H19.614c-7.127 0-12.905 5.778-12.905 12.905v14.259H113.29z" fill="#FFC644"/><path d="M27.847 16.942a4.504 4.504 0 1 0 0 9.008 4.504 4.504 0 0 0 0-9.008z" fill="#FFB23E"/><path d="M27.847 0a2.41 2.41 0 0 0-2.41 2.41v18.773a2.41 2.41 0 1 0 4.82 0V2.41A2.41 2.41 0 0 0 27.846 0z" fill="#FFF4BD"/><path d="M49.282 16.942a4.504 4.504 0 1 0 0 9.008 4.504 4.504 0 0 0 0-9.008z" fill="#FFB23E"/><path d="M49.282 0a2.41 2.41 0 0 0-2.41 2.41v18.773a2.41 2.41 0 1 0 4.82 0V2.41A2.41 2.41 0 0 0 49.282 0z" fill="#FFF4BD"/><path d="M70.718 16.942a4.504 4.504 0 1 0 0 9.008 4.504 4.504 0 0 0 0-9.008z" fill="#FFB23E"/><path d="M70.718 0a2.41 2.41 0 0 0-2.41 2.41v18.773a2.41 2.41 0 1 0 4.82 0V2.41A2.41 2.41 0 0 0 70.717 0z" fill="#FFF4BD"/><path d="M92.153 16.942a4.504 4.504 0 1 0 0 9.008 4.504 4.504 0 0 0 0-9.008z" fill="#FFB23E"/><path d="M92.153 0a2.41 2.41 0 0 0-2.41 2.41v18.773a2.41 2.41 0 1 0 4.82 0V2.41A2.41 2.41 0 0 0 92.153 0z" fill="#FFF4BD"/><path d="M46.035 55.005h9.741v9.741h-9.74v-9.741zM64.224 55.005h9.74v9.741h-9.74v-9.741zM82.412 55.005h9.741v9.741h-9.74v-9.741zM27.847 70.275h9.74v9.741h-9.74v-9.74zM46.035 70.275h9.741v9.741h-9.74v-9.74zM64.224 70.275h9.74v9.741h-9.74v-9.74zM82.412 70.275h9.741v9.741h-9.74v-9.74zM27.847 85.546h9.74v9.741h-9.74v-9.74zM46.035 85.546h9.741v9.741h-9.74v-9.74zM64.224 85.546h9.74v9.741h-9.74v-9.74z" fill="#FF6C4D"/></g><defs><clipPath id="a"><path fill="#fff" d="M0 0h120v120H0z"/></clipPath></defs></svg>
